public/images/gitbook-icon.svg

<svg width="24" height="24" viewBox="0 0 24 24" fill="none" xmlns="http://www.w3.org/2000/svg">
<g id="Group 128">
<path id="Vector" d="M11.0015 17.0052C11.0784 17.0053 11.1546 17.0212 11.2256 17.0519C11.2967 17.0827 11.3612 17.1277 11.4155 17.1844C11.4698 17.2411 11.5129 17.3084 11.5422 17.3824C11.5716 17.4565 11.5866 17.5358 11.5865 17.6159C11.5864 17.696 11.5711 17.7752 11.5416 17.8492C11.512 17.9231 11.4688 17.9903 11.4143 18.0468C11.3598 18.1034 11.2952 18.1482 11.2241 18.1787C11.153 18.2093 11.0768 18.2249 10.9998 18.2248C10.8444 18.2246 10.6955 18.1601 10.5858 18.0456C10.4761 17.9311 10.4146 17.7759 10.4148 17.6141C10.415 17.4524 10.477 17.2974 10.587 17.1832C10.697 17.069 10.8461 17.0049 11.0015 17.0052ZM20.1883 13.2343C20.1114 13.2343 20.0352 13.2184 19.9641 13.1877C19.8931 13.157 19.8285 13.1121 19.7742 13.0554C19.7198 12.9987 19.6767 12.9315 19.6473 12.8575C19.6179 12.7835 19.6028 12.7041 19.6029 12.6241C19.6029 12.544 19.6181 12.4647 19.6476 12.3907C19.6771 12.3168 19.7203 12.2496 19.7748 12.193C19.8292 12.1364 19.8938 12.0915 19.9649 12.0609C20.036 12.0303 20.1122 12.0146 20.1891 12.0147C20.3445 12.0148 20.4935 12.0791 20.6033 12.1936C20.7131 12.308 20.7747 12.4632 20.7746 12.6249C20.7745 12.7867 20.7126 12.9417 20.6027 13.056C20.4927 13.1703 20.3437 13.2344 20.1883 13.2343ZM20.1883 10.7395C19.7079 10.74 19.2474 10.9388 18.9077 11.2924C18.5681 11.6459 18.3771 12.1253 18.3766 12.6254C18.3766 12.8275 18.4091 13.0287 18.4724 13.2248L12.4882 16.5411C12.3222 16.2903 12.1002 16.0853 11.8412 15.9437C11.5822 15.8021 11.294 15.7281 11.0015 15.7283C10.3106 15.7283 9.68147 16.1403 9.37647 16.7831L4.00055 13.832C3.4322 13.5214 3.0072 12.5482 3.0522 11.6616C3.07553 11.1993 3.22887 10.8401 3.46304 10.7013C3.61137 10.6146 3.78971 10.6215 3.97971 10.7248L4.01471 10.7447C5.43973 11.5254 10.1015 14.0818 10.2981 14.1764C10.6007 14.323 10.769 14.382 11.2857 14.1269L20.9225 8.91002C21.0642 8.8545 21.2292 8.71311 21.2292 8.49884C21.2292 8.20217 20.9341 8.08506 20.9333 8.08506C20.385 7.81181 19.5425 7.4015 18.7208 7.00073C16.9641 6.14455 14.9732 5.17473 14.099 4.69762C13.344 4.28645 12.7365 4.63343 12.6282 4.70283L12.4182 4.81126C8.48312 6.83678 3.21637 9.55194 2.91636 9.74192C2.38052 10.082 2.04801 10.7594 2.00468 11.6C1.93801 12.9333 2.59052 14.3239 3.5247 14.8331L9.2098 17.8848C9.27242 18.3331 9.4879 18.7429 9.81686 19.0395C10.1458 19.336 10.5663 19.4995 11.0015 19.5C11.4768 19.4992 11.9328 19.3042 12.2714 18.9571C12.61 18.6099 12.8043 18.1383 12.8124 17.6436L19.0741 14.1105C19.3908 14.369 19.785 14.5104 20.1883 14.5104C20.6687 14.5099 21.1292 14.3111 21.4689 13.9575C21.8085 13.6039 21.9996 13.1245 22 12.6245C21.9996 12.1245 21.8085 11.6451 21.4689 11.2915C21.1292 10.9379 20.6687 10.7391 20.1883 10.7386" fill="white"/>
</g>
</svg>

<svg xmlns="http://www.w3.org/2000/svg" width="24" height="24" fill="none"><path fill="#fff" d="M11.002 17.005a.566.566 0 0 1 .413.18.612.612 0 0 1 .171.43.632.632 0 0 1-.172.432.584.584 0 0 1-.414.178.574.574 0 0 1-.414-.18.623.623 0 0 1-.171-.43c0-.163.062-.318.172-.432a.574.574 0 0 1 .415-.178Zm9.186-3.77a.565.565 0 0 1-.414-.18.612.612 0 0 1-.171-.43.63.63 0 0 1 .172-.432.584.584 0 0 1 .414-.178.57.57 0 0 1 .414.179.623.623 0 0 1 0 .862.574.574 0 0 1-.415.178Zm0-2.495c-.48 0-.94.199-1.28.552a1.928 1.928 0 0 0-.436 1.933l-5.984 3.316a1.83 1.83 0 0 0-.647-.597 1.747 1.747 0 0 0-.84-.216c-.69 0-1.32.412-1.625 1.055l-5.375-2.951c-.569-.31-.994-1.284-.949-2.17.024-.463.177-.822.411-.96.148-.087.327-.08.517.023l.035.02c1.425.78 6.087 3.337 6.283 3.431.303.147.471.206.988-.05l9.636-5.216c.142-.056.307-.197.307-.411 0-.297-.295-.414-.296-.414a307.01 307.01 0 0 0-2.212-1.084c-1.757-.856-3.748-1.826-4.622-2.303-.755-.412-1.363-.065-1.47.005l-.21.108c-3.936 2.026-9.203 4.74-9.503 4.93-.535.341-.868 1.018-.911 1.859-.067 1.333.586 2.724 1.52 3.233l5.685 3.052c.062.448.278.858.607 1.154.329.297.75.46 1.184.461.476 0 .932-.196 1.27-.543.339-.347.533-.819.541-1.313l6.262-3.533c.317.258.711.4 1.114.4.48-.001.941-.2 1.28-.553.34-.354.532-.834.532-1.334 0-.5-.192-.979-.531-1.333-.34-.353-.8-.552-1.28-.552"/></svg>
